X: 22404
T: Ladies Choice
R: barndance
M: 4/4
K: Aminor
A,EED EA,B,A,|G,3E DG,B,G,|A,E (3EEE A,ECE|(3GGG ^FG EDCB,|
A,3G EA,B,A,|G,G^FG DG,B,G,|A,E (3EEE A,ECE|1 GG,B,D EDCB,:|2 GDB,D EA,A,B,||
C2GC ECCE|(3DDD AD FDB,D|CDEG cBcA|GEDF ECA,B,|
C2G,C EGGE|D2A,D FDAD|CDEG cBcA|GEDF ECA,B,:|2 GEcE F2ED||

